X:1555
T:Come let us Away to the Camp
A:Wyresdale, Lancashire
B:E and J Winder, 1835-41
L:1/8
M:6/8
O:England
Z:Richard Robinson 
%%TUNEURL: http://www.leeds.ac.uk/music/Info/RRTuneBk/gettune/00001248.html
%%ID:00001248
K:C
G | cdc efe | faf d2f | ege c2c | dcd G2\
G | cdc ege | faf d2f | ege fdB | c3- c2 ::
e | e3 dcd | efe dcd | egc B2c | dcd G2 \
e | e3 dcd | efe dcd | ege fdB | c3- c2 :|
